X: 36347
T: Sean Hayes'
R: barndance
M: 4/4
K: Gmajor
|:D>G|B2 B2 c>Bc>A|d2 g2 g>fe>d|B3 B c>Bc>B|A3 A- A2 D2|
B2 B2 c>Bc>A|d2 g2 b2 a2|g>dB>d e>cA>F|1 G3 G- G2:|2 G3 G- G>g||
|:fg|a2 g2 B3 g|f2 e2 A3 G|F>GA>B c>de>a|(3agf (3gfe d>gf>g|
a2 g2 B3 g|f2 e2 A3 G|F>GA>B c>de>f|1 g2 f>a g>g:|2 g2 f>a g2||

